!!!SOCIAL_FUNCTION:	additional Mide Songs
!!!REG: Great Lakes
!!!PDT:	1909
!!!OTL: No_91_To_the_Spirit_Land.krn
**kern	**kern
*staff2	*staff1
*clefF4	*clefF4
*k[f#c#g#d#a#]	*k[f#c#g#d#a#]
*M5/4	*M5/4
2r	8c#\L
.	8c#\J
.	4c#\
=1	=1
8GG#/L	4.c#\
8GG#/	.
8GG#/	.
8GG#/	8c#\
8GG#/	4c#\
8GG#/J	.
8GG#/L	8c#\L
8GG#/	8c#\J
8GG#/	4c#\
8GG#/J	.
=2	=2
1r	4.B\
.	8B\
.	4B\
.	8G#\L
.	8G#\J
4r	4B\
=3	=3
1r	4.G#\
.	8G#\
.	4G#\
.	8G#\L
.	8G#\J
4r	4F#\
=4	=4
1r	4.F#\
.	8F#\
.	4F#\
.	8B\L
.	8B\J
4r	4B\
=5	=5
1r	4.G#~\
.	8G#\
.	4G#\
.	8G#\L
.	8G#\J
4r	4F#\
=6	=6
1r	4.F#\
.	8F#\
.	4F#\
.	8F#\L
.	8F#\J
4r	4F#\
=7	=7
1r	4F#\
.	4F#\
.	4c#\
.	8.c#\L
.	16c#\Jk
4r	4B\
=8	=8
1r	4.G#\
.	8G#\
.	4G#\
.	8c#\L
.	8c#\J
4r	4c#\
=9	=9
1r	4.B\
.	8B\
.	4B\
.	8G#\L
.	8G#\J
4r	4B\
=10	=10
1r	4.Gn\
.	8G\
.	4G\
.	8G\L
.	8G\J
4r	4F#\
=11	=11
1r	4.F#\
.	8F#\
.	4F#\
.	8B\L
.	8B\J
4r	4B\
=12	=12
1r	4.Gn\
.	8G\L
.	8G\
.	8G\J
.	8G\L
.	8G\J
4r	4F#\
=13	=13
*M6/4	*M6/4
1.r	4.F#\
.	8F#\
.	4F#\
.	8F#\L
.	8F#\J
.	4F#\
.	4F#\
==:|!	==:|!
*-	*-
